X:1
T:Come, Thou Almighty King
C:Author Unknown
M:3/4
%%sysstaffsep 35
K:G
L: 1/4
V: 1 snm="" clef=treble
[dG] [BG] [GD] | ([AE] [GD]) [FD] | [G3D3] | [GD] [AD] [BG] | ([c/F/-] [F/d/] [cA]) [BG] | [A3F3] |
w: Come, Thou Al-mi-ght-y King,  Help us Thy Name to sing,
V: 2 snm="" clef=bass
[gb] [gd'] [d'B] | ([cc'] [db]) [da] | [G3b3] | [gb] [fd'] [gd'] | ([ad'-] [d'f]) [gd'] | [d3d'3] |
